X: 5404
T: Buds In Winter
R: waltz
M: 3/4
K: Gmajor
|:d2|g3 g fg|d3 g fg|c3 B AG|A2 d3 d||
dc Bd cB|BA GB AG|GF GA GF|D2 de f/e/d|
g3 g fg|d3 g fg|c3 B AG|FA d3 d|
dc Bd cB|BA GB AG|GF GA GF|(G3 G):|
D/E/F|G3 B FG|E3 F GA|BA AG GF|FE E/F/G AF|
G3 B FG|E3 F GA|BA AG GF|G3 G D/E/F|
G3 B FG|E3 F GA|BA AG GF|FE ED EF|
G3 B FG|E3 F GA|BA AG GF|G4||

